images/feature-icon-2.svg

<svg width="45" height="45" viewBox="0 0 45 45" fill="none" xmlns="http://www.w3.org/2000/svg">
<g clip-path="url(#clip0_1_1990)">
<path d="M7.03125 17.5781H11.25C11.4365 17.5781 11.6153 17.504 11.7472 17.3722C11.879 17.2403 11.9531 17.0615 11.9531 16.875V12.6562C11.9531 12.4698 11.879 12.2909 11.7472 12.1591C11.6153 12.0272 11.4365 11.9531 11.25 11.9531H7.03125C6.84477 11.9531 6.66593 12.0272 6.53407 12.1591C6.4022 12.2909 6.32812 12.4698 6.32812 12.6562V16.875C6.32812 17.0615 6.4022 17.2403 6.53407 17.3722C6.66593 17.504 6.84477 17.5781 7.03125 17.5781ZM7.73438 13.3594H10.5469V16.1719H7.73438V13.3594Z" fill="white"/>
<path d="M14.0625 17.5781H18.2812V16.1719H14.7656V13.3594H18.2812V11.9531H14.0625C13.876 11.9531 13.6972 12.0272 13.5653 12.1591C13.4335 12.2909 13.3594 12.4698 13.3594 12.6562V16.875C13.3594 17.0615 13.4335 17.2403 13.5653 17.3722C13.6972 17.504 13.876 17.5781 14.0625 17.5781Z" fill="white"/>
<path d="M7.03125 24.6094H11.25C11.4365 24.6094 11.6153 24.5353 11.7472 24.4034C11.879 24.2716 11.9531 24.0927 11.9531 23.9062V19.6875C11.9531 19.501 11.879 19.3222 11.7472 19.1903C11.6153 19.0585 11.4365 18.9844 11.25 18.9844H7.03125C6.84477 18.9844 6.66593 19.0585 6.53407 19.1903C6.4022 19.3222 6.32812 19.501 6.32812 19.6875V23.9062C6.32812 24.0927 6.4022 24.2716 6.53407 24.4034C6.66593 24.5353 6.84477 24.6094 7.03125 24.6094ZM7.73438 20.3906H10.5469V23.2031H7.73438V20.3906Z" fill="white"/>
<path d="M7.03125 31.6406H11.25C11.4365 31.6406 11.6153 31.5665 11.7472 31.4347C11.879 31.3028 11.9531 31.124 11.9531 30.9375V26.7188C11.9531 26.5323 11.879 26.3534 11.7472 26.2216C11.6153 26.0897 11.4365 26.0156 11.25 26.0156H7.03125C6.84477 26.0156 6.66593 26.0897 6.53407 26.2216C6.4022 26.3534 6.32812 26.5323 6.32812 26.7188V30.9375C6.32812 31.124 6.4022 31.3028 6.53407 31.4347C6.66593 31.5665 6.84477 31.6406 7.03125 31.6406ZM7.73438 27.4219H10.5469V30.2344H7.73438V27.4219Z" fill="white"/>
<path d="M22.5 24.6094H19.6875C19.501 24.6094 19.3222 24.6835 19.1903 24.8153C19.0585 24.9472 18.9844 25.126 18.9844 25.3125V28.125C18.9844 28.3115 19.0585 28.4903 19.1903 28.6222C19.3222 28.754 19.501 28.8281 19.6875 28.8281H22.5C22.6865 28.8281 22.8653 28.754 22.9972 28.6222C23.129 28.4903 23.2031 28.3115 23.2031 28.125V25.3125C23.2031 25.126 23.129 24.9472 22.9972 24.8153C22.8653 24.6835 22.6865 24.6094 22.5 24.6094ZM21.7969 27.4219H20.3906V26.0156H21.7969V27.4219Z" fill="white"/>
<path d="M22.5 30.2344H19.6875C19.501 30.2344 19.3222 30.3085 19.1903 30.4403C19.0585 30.5722 18.9844 30.751 18.9844 30.9375V33.75C18.9844 33.9365 19.0585 34.1153 19.1903 34.2472C19.3222 34.379 19.501 34.4531 19.6875 34.4531H22.5C22.6865 34.4531 22.8653 34.379 22.9972 34.2472C23.129 34.1153 23.2031 33.9365 23.2031 33.75V30.9375C23.2031 30.751 23.129 30.5722 22.9972 30.4403C22.8653 30.3085 22.6865 30.2344 22.5 30.2344ZM21.7969 33.0469H20.3906V31.6406H21.7969V33.0469Z" fill="white"/>
<path d="M28.125 30.2344H25.3125C25.126 30.2344 24.9472 30.3085 24.8153 30.4403C24.6835 30.5722 24.6094 30.751 24.6094 30.9375V33.75C24.6094 33.9365 24.6835 34.1153 24.8153 34.2472C24.9472 34.379 25.126 34.4531 25.3125 34.4531H28.125C28.3115 34.4531 28.4903 34.379 28.6222 34.2472C28.754 34.1153 28.8281 33.9365 28.8281 33.75V30.9375C28.8281 30.751 28.754 30.5722 28.6222 30.4403C28.4903 30.3085 28.3115 30.2344 28.125 30.2344ZM27.4219 33.0469H26.0156V31.6406H27.4219V33.0469Z" fill="white"/>
<path d="M25.3125 28.8281H28.125V27.4219H26.0156V25.3125H24.6094V28.125C24.6094 28.3115 24.6835 28.4903 24.8153 28.6222C24.9472 28.754 25.126 28.8281 25.3125 28.8281Z" fill="white"/>
<path d="M43.5938 9.84375H42.319C42.148 9.32087 41.9386 8.81135 41.6925 8.31938L42.6846 7.32727C42.8164 7.19541 42.8905 7.0166 42.8905 6.83016C42.8905 6.64371 42.8164 6.4649 42.6846 6.33305L38.667 2.31539C38.5326 2.18836 38.3547 2.11757 38.1698 2.11757C37.985 2.11757 37.8071 2.18836 37.6727 2.31539L36.6806 3.30469C36.1886 3.05951 35.6791 2.85105 35.1562 2.68102V1.40625C35.1562 1.21977 35.0822 1.04093 34.9503 0.909066C34.8184 0.777204 34.6396 0.703125 34.4531 0.703125H28.8281C28.6416 0.703125 28.4628 0.777204 28.3309 0.909066C28.1991 1.04093 28.125 1.21977 28.125 1.40625V2.68102C27.6021 2.85196 27.0926 3.06136 26.6006 3.3075L25.6085 2.31539C25.4767 2.18358 25.2978 2.10953 25.1114 2.10953C24.925 2.10953 24.7462 2.18358 24.6143 2.31539L20.6016 6.32812H2.8125C2.62602 6.32812 2.44718 6.4022 2.31532 6.53407C2.18345 6.66593 2.10938 6.84477 2.10938 7.03125V9.84375C2.10938 10.0302 2.18345 10.2091 2.31532 10.3409C2.44718 10.4728 2.62602 10.5469 2.8125 10.5469H3.51562V40.0781H1.40625C1.21977 40.0781 1.04093 40.1522 0.909066 40.2841C0.777204 40.4159 0.703125 40.5948 0.703125 40.7812V43.5938C0.703125 43.7802 0.777204 43.9591 0.909066 44.0909C1.04093 44.2228 1.21977 44.2969 1.40625 44.2969H33.75C33.9365 44.2969 34.1153 44.2228 34.2472 44.0909C34.379 43.9591 34.4531 43.7802 34.4531 43.5938V40.7812C34.4531 40.5948 34.379 40.4159 34.2472 40.2841C34.1153 40.1522 33.9365 40.0781 33.75 40.0781H31.6406V26.0156H34.4531C34.6396 26.0156 34.8184 25.9415 34.9503 25.8097C35.0822 25.6778 35.1562 25.499 35.1562 25.3125V24.0377C35.6791 23.8668 36.1886 23.6574 36.6806 23.4113L37.6727 24.4034C37.8046 24.5352 37.9834 24.6092 38.1698 24.6092C38.3563 24.6092 38.5351 24.5352 38.667 24.4034L42.6846 20.3857C42.8164 20.2538 42.8905 20.075 42.8905 19.8886C42.8905 19.7022 42.8164 19.5233 42.6846 19.3915L41.6953 18.3994C41.9405 17.9073 42.149 17.3978 42.319 16.875H43.5938C43.7802 16.875 43.9591 16.8009 44.0909 16.6691C44.2228 16.5372 44.2969 16.3584 44.2969 16.1719V10.5469C44.2969 10.3604 44.2228 10.1816 44.0909 10.0497C43.9591 9.91783 43.7802 9.84375 43.5938 9.84375ZM4.92188 10.5469H18.2812V9.14062H3.51562V7.73438H21.0037L21.5888 8.31938C21.3426 8.81135 21.1332 9.32087 20.9623 9.84375H19.6875C19.501 9.84375 19.3222 9.91783 19.1903 10.0497C19.0585 10.1816 18.9844 10.3604 18.9844 10.5469V16.1719C18.9844 16.3584 19.0585 16.5372 19.1903 16.6691C19.3222 16.8009 19.501 16.875 19.6875 16.875H20.9623C21.1332 17.3979 21.3426 17.9074 21.5888 18.3994L20.5966 19.3915C20.4648 19.5233 20.3908 19.7022 20.3908 19.8886C20.3908 20.075 20.4648 20.2538 20.5966 20.3857L22.0078 21.7969H18.9844V19.6875C18.9844 19.501 18.9103 19.3222 18.7784 19.1903C18.6466 19.0585 18.4677 18.9844 18.2812 18.9844H14.0625C13.876 18.9844 13.6972 19.0585 13.5653 19.1903C13.4335 19.3222 13.3594 19.501 13.3594 19.6875V23.9062C13.3594 24.0927 13.4335 24.2716 13.5653 24.4034C13.6972 24.5353 13.876 24.6094 14.0625 24.6094H16.1719V26.0156H14.0625C13.876 26.0156 13.6972 26.0897 13.5653 26.2216C13.4335 26.3534 13.3594 26.5323 13.3594 26.7188V30.9375C13.3594 31.124 13.4335 31.3028 13.5653 31.4347C13.6972 31.5665 13.876 31.6406 14.0625 31.6406H16.1719V34.4531C15.426 34.4531 14.7106 34.7494 14.1831 35.2769C13.6557 35.8043 13.3594 36.5197 13.3594 37.2656V40.0781H11.9531V37.2656C11.9531 36.5197 11.6568 35.8043 11.1294 35.2769C10.6019 34.7494 9.88655 34.4531 9.14062 34.4531C8.3947 34.4531 7.67933 34.7494 7.15189 35.2769C6.62444 35.8043 6.32812 36.5197 6.32812 37.2656V40.0781H4.92188V10.5469ZM14.7656 40.0781V37.2656C14.7656 36.8927 14.9138 36.535 15.1775 36.2713C15.4412 36.0075 15.7989 35.8594 16.1719 35.8594V40.0781H14.7656ZM16.1719 30.2344H14.7656V27.4219H16.1719V30.2344ZM16.875 21.7969C16.6885 21.7969 16.5097 21.871 16.3778 22.0028C16.246 22.1347 16.1719 22.3135 16.1719 22.5V23.2031H14.7656V20.3906H17.5781V21.7969H16.875ZM10.5469 40.0781H7.73438V37.2656C7.73438 36.8927 7.88253 36.535 8.14626 36.2713C8.40998 36.0075 8.76766 35.8594 9.14062 35.8594C9.51359 35.8594 9.87127 36.0075 10.135 36.2713C10.3987 36.535 10.5469 36.8927 10.5469 37.2656V40.0781ZM33.0469 42.8906H2.10938V41.4844H33.0469V42.8906ZM24.6094 40.0781H23.2031V37.9688C23.2031 37.7823 23.2772 37.6034 23.4091 37.4716C23.5409 37.3397 23.7198 37.2656 23.9062 37.2656C24.0927 37.2656 24.2716 37.3397 24.4034 37.4716C24.5353 37.6034 24.6094 37.7823 24.6094 37.9688V40.0781ZM30.2344 40.0781H26.0156V37.9688C26.0156 37.4093 25.7934 36.8728 25.3978 36.4772C25.0022 36.0816 24.4657 35.8594 23.9062 35.8594C23.3468 35.8594 22.8103 36.0816 22.4147 36.4772C22.0191 36.8728 21.7969 37.4093 21.7969 37.9688V40.0781H17.5781V23.2031H23.4141L24.6143 24.4034C24.7486 24.5304 24.9265 24.6012 25.1114 24.6012C25.2963 24.6012 25.4742 24.5304 25.6085 24.4034L26.6006 23.4141C27.0927 23.6592 27.6022 23.8677 28.125 24.0377V25.3125C28.125 25.499 28.1991 25.6778 28.3309 25.8097C28.4628 25.9415 28.6416 26.0156 28.8281 26.0156H30.2344V40.0781ZM42.8906 15.4688H41.7966C41.6427 15.4687 41.493 15.5192 41.3706 15.6125C41.2482 15.7057 41.1597 15.8365 41.1188 15.9848C40.9091 16.7516 40.6069 17.4899 40.2188 18.1835C40.143 18.3174 40.1133 18.4724 40.1341 18.6248C40.155 18.7772 40.2252 18.9186 40.3341 19.0273L41.1968 19.8893L38.1734 22.9127L37.3078 22.0493C37.1992 21.9404 37.0578 21.8702 36.9054 21.8494C36.753 21.8285 36.598 21.8583 36.4641 21.934C35.7706 22.3233 35.0323 22.6267 34.2654 22.8375C34.117 22.8784 33.9862 22.9669 33.893 23.0893C33.7998 23.2118 33.7493 23.3614 33.7493 23.5153V24.6094H29.5312V23.5153C29.5313 23.3614 29.4808 23.2118 29.3875 23.0893C29.2943 22.9669 29.1635 22.8784 29.0152 22.8375C28.2484 22.6279 27.5101 22.3256 26.8165 21.9375C26.6826 21.8618 26.5276 21.8321 26.3752 21.8529C26.2228 21.8737 26.0814 21.9439 25.9727 22.0528L25.1107 22.9155L22.0873 19.8921L22.95 19.0301C23.0589 18.9214 23.1291 18.78 23.1499 18.6276C23.1707 18.4752 23.141 18.3202 23.0653 18.1863C22.676 17.4929 22.3725 16.7545 22.1618 15.9877C22.1214 15.8389 22.0333 15.7075 21.9109 15.6138C21.7886 15.52 21.6388 15.4691 21.4847 15.4688H20.3906V11.25H21.4847C21.6386 11.25 21.7882 11.1995 21.9107 11.1063C22.0331 11.0131 22.1216 10.8823 22.1625 10.7339C22.3733 9.96704 22.6767 9.22871 23.066 8.53523C23.1417 8.40134 23.1715 8.24632 23.1506 8.09392C23.1298 7.94152 23.0596 7.80015 22.9507 7.69148L22.088 6.83016L25.1114 3.80672L25.9734 4.66945C26.0821 4.77832 26.2235 4.84855 26.3759 4.86937C26.5283 4.8902 26.6833 4.86048 26.8172 4.78477C27.5104 4.39546 28.2485 4.09205 29.0152 3.88125C29.1635 3.84032 29.2943 3.75184 29.3875 3.62941C29.4808 3.50697 29.5313 3.35733 29.5312 3.20344V2.10938H33.75V3.20344C33.75 3.35733 33.8005 3.50697 33.8937 3.62941C33.9869 3.75184 34.1177 3.84032 34.2661 3.88125C35.033 4.092 35.7713 4.39541 36.4648 4.78477C36.5987 4.86048 36.7537 4.8902 36.9061 4.86937C37.0585 4.84855 37.1999 4.77832 37.3085 4.66945L38.1705 3.80672L41.194 6.83016L40.3305 7.69219C40.2217 7.80085 40.1515 7.94222 40.1306 8.09462C40.1098 8.24702 40.1395 8.40205 40.2152 8.53594C40.6046 9.22941 40.908 9.96774 41.1188 10.7346C41.1597 10.883 41.2482 11.0138 41.3706 11.107C41.493 11.2002 41.6427 11.2507 41.7966 11.2507H42.8906V15.4688Z" fill="white"/>
<path d="M31.6406 4.92188C29.9718 4.92188 28.3405 5.41673 26.953 6.34385C25.5655 7.27097 24.484 8.58873 23.8454 10.1305C23.2068 11.6722 23.0397 13.3687 23.3653 15.0055C23.6908 16.6422 24.4944 18.1456 25.6744 19.3256C26.8544 20.5056 28.3578 21.3092 29.9946 21.6348C31.6313 21.9603 33.3278 21.7932 34.8695 21.1546C36.4113 20.516 37.729 19.4345 38.6562 18.047C39.5833 16.6595 40.0781 15.0282 40.0781 13.3594C40.0757 11.1224 39.186 8.97765 37.6042 7.39583C36.0224 5.81402 33.8777 4.92429 31.6406 4.92188ZM30.9375 20.3548V16.6282C30.9376 16.4828 30.8926 16.341 30.8087 16.2223C30.7248 16.1035 30.6062 16.0137 30.4692 15.9652C29.8699 15.7542 29.3392 15.3844 28.9337 14.8953C28.5282 14.4061 28.2631 13.8161 28.1668 13.1881C28.0705 12.5601 28.1466 11.9177 28.3869 11.3295C28.6272 10.7414 29.0227 10.2296 29.5313 9.84867V12.6563C29.5313 12.8427 29.6054 13.0215 29.7373 13.1534L31.1435 14.5596C31.2754 14.6914 31.4542 14.7655 31.6406 14.7655C31.8271 14.7655 32.0059 14.6914 32.1377 14.5596L33.544 13.1534C33.6759 13.0215 33.75 12.8427 33.75 12.6563V9.84867C34.2587 10.2295 34.6544 10.7414 34.8949 11.3296C35.1353 11.9179 35.2114 12.5604 35.1151 13.1885C35.0188 13.8166 34.7537 14.4068 34.348 14.896C33.9424 15.3851 33.4115 15.7549 32.812 15.9659C32.675 16.0144 32.5564 16.1042 32.4726 16.223C32.3887 16.3417 32.3437 16.4835 32.3438 16.6289V20.3555C31.8762 20.4033 31.405 20.4033 30.9375 20.3555V20.3548ZM33.75 20.0665V17.0993C34.6303 16.6825 35.367 16.0135 35.8665 15.1774C36.366 14.3412 36.6059 13.3755 36.5558 12.4028C36.5056 11.4301 36.1676 10.4942 35.5847 9.71384C35.0018 8.93351 34.2002 8.34391 33.2817 8.01984C33.1756 7.98225 33.0621 7.97068 32.9506 7.98609C32.8391 8.00151 32.7329 8.04346 32.641 8.10843C32.5491 8.1734 32.4741 8.25949 32.4224 8.35945C32.3707 8.45942 32.3437 8.57034 32.3438 8.68289V12.3652L31.6406 13.0683L30.9375 12.3652V8.68289C30.9376 8.57034 30.9106 8.45942 30.8589 8.35945C30.8071 8.25949 30.7322 8.1734 30.6402 8.10843C30.5483 8.04346 30.4422 8.00151 30.3307 7.98609C30.2192 7.97068 30.1056 7.98225 29.9995 8.01984C29.081 8.34391 28.2795 8.93351 27.6966 9.71384C27.1137 10.4942 26.7757 11.4301 26.7255 12.4028C26.6753 13.3755 26.9152 14.3412 27.4148 15.1774C27.9143 16.0135 28.6509 16.6825 29.5313 17.0993V20.0665C27.9287 19.5625 26.5596 18.5015 25.6717 17.0754C24.7839 15.6493 24.4359 13.9525 24.6908 12.2921C24.9458 10.6316 25.7867 9.11734 27.0616 8.02332C28.3364 6.9293 29.9607 6.32785 31.6406 6.32785C33.3205 6.32785 34.9449 6.9293 36.2197 8.02332C37.4945 9.11734 38.3355 10.6316 38.5904 12.2921C38.8454 13.9525 38.4974 15.6493 37.6095 17.0754C36.7216 18.5015 35.3525 19.5625 33.75 20.0665Z" fill="white"/>
</g>
<defs>
<clipPath id="clip0_1_1990">
<rect width="45" height="45" fill="white"/>
</clipPath>
</defs>
</svg>

<svg xmlns="http://www.w3.org/2000/svg" width="45" height="45" fill="none"><g fill="#fff" clip-path="url(#a)"><path d="M7.031 17.578h4.219a.703.703 0 0 0 .703-.703v-4.219a.703.703 0 0 0-.703-.703H7.031a.703.703 0 0 0-.703.703v4.219a.703.703 0 0 0 .703.703m.703-4.219h2.813v2.813H7.734zM14.063 17.578h4.218v-1.406h-3.515v-2.813h3.515v-1.406h-4.218a.703.703 0 0 0-.704.703v4.219a.703.703 0 0 0 .704.703M7.031 24.61h4.219a.703.703 0 0 0 .703-.704v-4.218a.703.703 0 0 0-.703-.704H7.031a.703.703 0 0 0-.703.703v4.22a.703.703 0 0 0 .703.702m.703-4.22h2.813v2.813H7.734zM7.031 31.64h4.219a.703.703 0 0 0 .703-.703V26.72a.703.703 0 0 0-.703-.703H7.031a.703.703 0 0 0-.703.703v4.218a.703.703 0 0 0 .703.704m.703-4.218h2.813v2.812H7.734zM22.5 24.61h-2.812a.703.703 0 0 0-.704.703v2.812a.703.703 0 0 0 .703.703H22.5a.703.703 0 0 0 .703-.703v-2.812a.703.703 0 0 0-.703-.704m-.703 2.812H20.39v-1.406h1.406zM22.5 30.234h-2.812a.703.703 0 0 0-.704.703v2.813a.703.703 0 0 0 .703.703H22.5a.703.703 0 0 0 .703-.703v-2.812a.703.703 0 0 0-.703-.704m-.703 2.813H20.39V31.64h1.406zM28.125 30.234h-2.812a.703.703 0 0 0-.704.703v2.813a.703.703 0 0 0 .703.703h2.813a.703.703 0 0 0 .703-.703v-2.812a.703.703 0 0 0-.703-.704m-.703 2.813h-1.406V31.64h1.406zM25.313 28.828h2.812v-1.406h-2.11v-2.11H24.61v2.813a.703.703 0 0 0 .703.703"/><path d="M43.594 9.844h-1.275a11 11 0 0 0-.626-1.525l.992-.992a.703.703 0 0 0 0-.994l-4.018-4.018a.724.724 0 0 0-.994 0l-.992.99a11 11 0 0 0-1.525-.624V1.406a.703.703 0 0 0-.703-.703h-5.625a.703.703 0 0 0-.703.703v1.275q-.785.256-1.524.627l-.992-.993a.703.703 0 0 0-.995 0l-4.012 4.013H2.812a.703.703 0 0 0-.703.703v2.813a.703.703 0 0 0 .704.703h.703v29.531h-2.11a.703.703 0 0 0-.703.703v2.813a.703.703 0 0 0 .703.703H33.75a.703.703 0 0 0 .703-.703V40.78a.703.703 0 0 0-.703-.703h-2.11V26.016h2.813a.703.703 0 0 0 .703-.703v-1.275q.786-.257 1.525-.627l.992.992a.703.703 0 0 0 .994 0l4.018-4.017a.703.703 0 0 0 0-.994l-.99-.993q.368-.739.624-1.524h1.275a.703.703 0 0 0 .703-.703v-5.625a.703.703 0 0 0-.703-.703m-38.672.703h13.36V9.14H3.515V7.734h17.488l.585.585a11 11 0 0 0-.627 1.525h-1.274a.703.703 0 0 0-.704.703v5.625a.703.703 0 0 0 .703.703h1.275q.257.785.627 1.524l-.992.992a.703.703 0 0 0 0 .995l1.41 1.41h-3.023v-2.108a.703.703 0 0 0-.703-.704h-4.218a.703.703 0 0 0-.704.703v4.22a.703.703 0 0 0 .704.702h2.109v1.407h-2.11a.703.703 0 0 0-.703.703v4.218a.703.703 0 0 0 .704.704h2.109v2.812a2.813 2.813 0 0 0-2.813 2.813v2.812h-1.406v-2.812a2.813 2.813 0 1 0-5.625 0v2.812H4.922zm9.844 29.531v-2.812a1.406 1.406 0 0 1 1.406-1.407v4.22zm1.406-9.844h-1.406v-2.812h1.406zm.703-8.437a.703.703 0 0 0-.703.703v.703h-1.406v-2.812h2.812v1.406zm-6.328 18.281H7.734v-2.812a1.406 1.406 0 0 1 2.813 0zm22.5 2.813H2.109v-1.407h30.938zm-8.438-2.813h-1.406v-2.11a.703.703 0 1 1 1.406 0zm5.625 0h-4.218v-2.11a2.11 2.11 0 1 0-4.22 0v2.11h-4.218V23.203h5.836l1.2 1.2a.724.724 0 0 0 .994 0l.993-.989a11 11 0 0 0 1.524.624v1.274a.703.703 0 0 0 .703.704h1.406zm12.657-24.61h-1.094a.7.7 0 0 0-.678.517 9.8 9.8 0 0 1-.9 2.198.7.7 0 0 0 .115.844l.863.862-3.024 3.024-.865-.864a.7.7 0 0 0-.844-.115 9.8 9.8 0 0 1-2.199.903.7.7 0 0 0-.516.678v1.094h-4.218v-1.094a.7.7 0 0 0-.516-.678 9.8 9.8 0 0 1-2.198-.9.7.7 0 0 0-.844.116l-.862.863-3.024-3.024.863-.862a.7.7 0 0 0 .115-.844 9.8 9.8 0 0 1-.903-2.198.7.7 0 0 0-.677-.52H20.39V11.25h1.094a.704.704 0 0 0 .678-.516c.21-.767.514-1.505.903-2.199a.7.7 0 0 0-.115-.844l-.863-.86 3.023-3.024.862.862a.7.7 0 0 0 .844.116 9.8 9.8 0 0 1 2.198-.904.7.7 0 0 0 .516-.678V2.11h4.219v1.094a.7.7 0 0 0 .516.678 9.8 9.8 0 0 1 2.199.904.7.7 0 0 0 .843-.116l.862-.862 3.024 3.023-.864.862a.704.704 0 0 0-.115.844 9.8 9.8 0 0 1 .904 2.199.7.7 0 0 0 .678.516h1.094z"/><path d="M31.64 4.922a8.437 8.437 0 1 0 8.438 8.437 8.447 8.447 0 0 0-8.437-8.437m-.703 15.433v-3.727a.7.7 0 0 0-.468-.663 3.508 3.508 0 0 1-.938-6.116v2.807c0 .187.074.365.206.497l1.407 1.407a.703.703 0 0 0 .994 0l1.406-1.407a.7.7 0 0 0 .206-.497V9.85a3.509 3.509 0 0 1-.938 6.117.7.7 0 0 0-.468.663v3.726a7 7 0 0 1-1.407 0m2.813-.288v-2.968a4.916 4.916 0 0 0-.468-9.08.703.703 0 0 0-.938.664v3.682l-.703.703-.703-.703V8.683A.703.703 0 0 0 30 8.02a4.916 4.916 0 0 0-.469 9.08v2.967a7.031 7.031 0 1 1 4.219 0"/></g><defs><clipPath id="a"><path fill="#fff" d="M0 0h45v45H0z"/></clipPath></defs></svg>
